src/activities/graph-coloring/resource/shapes/ring.svg

<!--Created with Inkscape (http://www.inkscape.org/)--><svg xmlns:dc="http://purl.org/dc/elements/1.1/" xmlns:cc="http://creativecommons.org/ns#" xmlns:rdf="http://www.w3.org/1999/02/22-rdf-syntax-ns#" xmlns="http://www.w3.org/2000/svg" xmlns:sodipodi="http://sodipodi.sourceforge.net/DTD/sodipodi-0.dtd" xmlns:inkscape="http://www.inkscape.org/namespaces/inkscape" width="128" height="128" viewBox="0 0 120 120" inkscape:version="0.92.4 (5da689c313, 2019-01-14)" sodipodi:docname="ring.svg"><sodipodi:namedview pagecolor="#ffffff" bordercolor="#666666" borderopacity="1.0" inkscape:pageopacity="0.0" inkscape:pageshadow="2" inkscape:zoom="1.979899" inkscape:cx="102.87053" inkscape:cy="2.8046747" inkscape:document-units="px" inkscape:current-layer="layer1" showgrid="true" fit-margin-top="0" fit-margin-left="0" fit-margin-right="0" fit-margin-bottom="0" inkscape:window-width="1884" inkscape:window-height="1054" inkscape:window-x="0" inkscape:window-y="0" inkscape:window-maximized="1" units="px"><inkscape:grid empspacing="4" type="xygrid"/></sodipodi:namedview><metadata><rdf:RDF><cc:Work><dc:format>image/svg+xml</dc:format><dc:type rdf:resource="http://purl.org/dc/dcmitype/StillImage"/><dc:title/><dc:date>2020</dc:date><dc:creator><cc:Agent><dc:title>Timothée Giet</dc:title></cc:Agent></dc:creator><cc:license rdf:resource="http://creativecommons.org/licenses/by-sa/4.0/"/></cc:Work><cc:License rdf:about="http://creativecommons.org/licenses/by-sa/4.0/"><cc:permits rdf:resource="http://creativecommons.org/ns#Reproduction"/><cc:permits rdf:resource="http://creativecommons.org/ns#Distribution"/><cc:requires rdf:resource="http://creativecommons.org/ns#Notice"/><cc:requires rdf:resource="http://creativecommons.org/ns#Attribution"/><cc:permits rdf:resource="http://creativecommons.org/ns#DerivativeWorks"/><cc:requires rdf:resource="http://creativecommons.org/ns#ShareAlike"/></cc:License></rdf:RDF></metadata><g inkscape:label="Layer 1" inkscape:groupmode="layer"><path style="opacity:1;vector-effect:none;fill:#1a8fc7;fill-opacity:1;stroke:none;stroke-width:2.55999994;stroke-linecap:butt;stroke-linejoin:miter;stroke-miterlimit:4;stroke-dasharray:none;stroke-dashoffset:0;stroke-opacity:1" d="M64 0A64 64 0 0 0 0 64a64 64 0 0 0 64 64 64 64 0 0 0 64-64A64 64 0 0 0 64 0zm0 40a24 24 0 0 1 24 24 24 24 0 0 1-24 24 24 24 0 0 1-24-24 24 24 0 0 1 24-24z" transform="scale(.9375)" inkscape:connector-curvature="0"/><path style="opacity:1;vector-effect:none;fill:#49bbf0;fill-opacity:1;stroke:none;stroke-width:2.55999994;stroke-linecap:butt;stroke-linejoin:miter;stroke-miterlimit:4;stroke-dasharray:none;stroke-dashoffset:0;stroke-opacity:1" d="M64 8A56 56 0 0 0 8 64a56 56 0 0 0 56 56 56 56 0 0 0 56-56A56 56 0 0 0 64 8zm0 24a32 32 0 0 1 32 32 32 32 0 0 1-32 32 32 32 0 0 1-32-32 32 32 0 0 1 32-32z" transform="scale(.9375)" inkscape:connector-curvature="0"/></g></svg>

<?xml version="1.0" encoding="UTF-8" standalone="no"?>
<!-- Created with Inkscape (http://www.inkscape.org/) -->

<svg
   xmlns:dc="http://purl.org/dc/elements/1.1/"
   xmlns:cc="http://creativecommons.org/ns#"
   xmlns:rdf="http://www.w3.org/1999/02/22-rdf-syntax-ns#"
   xmlns:svg="http://www.w3.org/2000/svg"
   xmlns="http://www.w3.org/2000/svg"
   xmlns:sodipodi="http://sodipodi.sourceforge.net/DTD/sodipodi-0.dtd"
   xmlns:inkscape="http://www.inkscape.org/namespaces/inkscape"
   width="128"
   height="128"
   viewBox="0 0 120 120"
   id="svg8562"
   version="1.1"
   inkscape:version="0.92.4 (5da689c313, 2019-01-14)"
   sodipodi:docname="ring.svg">
  <defs
     id="defs8564" />
  <sodipodi:namedview
     id="base"
     pagecolor="#ffffff"
     bordercolor="#666666"
     borderopacity="1.0"
     inkscape:pageopacity="0.0"
     inkscape:pageshadow="2"
     inkscape:zoom="1.979899"
     inkscape:cx="102.87053"
     inkscape:cy="2.8046747"
     inkscape:document-units="px"
     inkscape:current-layer="layer1"
     showgrid="true"
     fit-margin-top="0"
     fit-margin-left="0"
     fit-margin-right="0"
     fit-margin-bottom="0"
     inkscape:window-width="1884"
     inkscape:window-height="1054"
     inkscape:window-x="0"
     inkscape:window-y="0"
     inkscape:window-maximized="1"
     units="px">
    <inkscape:grid
       empspacing="4"
       type="xygrid"
       id="grid841" />
  </sodipodi:namedview>
  <metadata
     id="metadata8567">
    <rdf:RDF>
      <cc:Work
         rdf:about="">
        <dc:format>image/svg+xml</dc:format>
        <dc:type
           rdf:resource="http://purl.org/dc/dcmitype/StillImage" />
        <dc:title></dc:title>
        <dc:date>2020</dc:date>
        <dc:creator>
          <cc:Agent>
            <dc:title>Timothée Giet</dc:title>
          </cc:Agent>
        </dc:creator>
        <cc:license
           rdf:resource="http://creativecommons.org/licenses/by-sa/4.0/" />
      </cc:Work>
      <cc:License
         rdf:about="http://creativecommons.org/licenses/by-sa/4.0/">
        <cc:permits
           rdf:resource="http://creativecommons.org/ns#Reproduction" />
        <cc:permits
           rdf:resource="http://creativecommons.org/ns#Distribution" />
        <cc:requires
           rdf:resource="http://creativecommons.org/ns#Notice" />
        <cc:requires
           rdf:resource="http://creativecommons.org/ns#Attribution" />
        <cc:permits
           rdf:resource="http://creativecommons.org/ns#DerivativeWorks" />
        <cc:requires
           rdf:resource="http://creativecommons.org/ns#ShareAlike" />
      </cc:License>
    </rdf:RDF>
  </metadata>
  <g
     inkscape:label="Layer 1"
     inkscape:groupmode="layer"
     id="layer1"
     transform="translate(-241.7247,-597.44654)">
    <path
       style="opacity:1;vector-effect:none;fill:#1a8fc7;fill-opacity:1;stroke:none;stroke-width:2.55999994;stroke-linecap:butt;stroke-linejoin:miter;stroke-miterlimit:4;stroke-dasharray:none;stroke-dashoffset:0;stroke-opacity:1"
       d="M 64,0 A 64,64 0 0 0 0,64 64,64 0 0 0 64,128 64,64 0 0 0 128,64 64,64 0 0 0 64,0 Z m 0,40 A 24,24 0 0 1 88,64 24,24 0 0 1 64,88 24,24 0 0 1 40,64 24,24 0 0 1 64,40 Z"
       transform="matrix(0.9375,0,0,0.9375,241.7247,597.44654)"
       id="path1142"
       inkscape:connector-curvature="0" />
    <path
       style="opacity:1;vector-effect:none;fill:#49bbf0;fill-opacity:1;stroke:none;stroke-width:2.55999994;stroke-linecap:butt;stroke-linejoin:miter;stroke-miterlimit:4;stroke-dasharray:none;stroke-dashoffset:0;stroke-opacity:1"
       d="M 64,8 A 56,56 0 0 0 8,64 56,56 0 0 0 64,120 56,56 0 0 0 120,64 56,56 0 0 0 64,8 Z m 0,24 A 32,32 0 0 1 96,64 32,32 0 0 1 64,96 32,32 0 0 1 32,64 32,32 0 0 1 64,32 Z"
       transform="matrix(0.9375,0,0,0.9375,241.7247,597.44654)"
       id="path1149"
       inkscape:connector-curvature="0" />
  </g>
</svg>
